X: 19829
T: Jerry McMahon's
R: reel
M: 4/4
K: Adorian
EAAG ABcG|E2 DE GEDG|EAAG A2 B/c/d|eged cAdc|
A3 A ABcG|E2 DE GEDG|EAAG A2 B/c/d|edcA G3 c||
Addc d2cA|d2 cA G2 E/F/G|Addc ABcd|e/f/ged cA G2|
Addc d2cA|d2 cA G2 E/F/G|Addc ABcd|e/f/ged cAdc||
A3 A ABcG|E2 DE GEDG|EAAG A2 B/c/d|eged cAdc|
AG{A}G{F}G AG{A}G{F}G|GEDE GEDG|EAAG ABcd|edcA G3 c||
Addc d2cA|d2 cA G2 E/F/G|Addc ABcd|e/f/ged cA G2|
Addc d2cA|d2 cA G2 E/F/G|Addc ABcd|e/f/ged cAdc||

